public/assets/img/program2.svg

<svg width="69" height="69" viewBox="0 0 69 69" fill="none" xmlns="http://www.w3.org/2000/svg">
<path d="M33.4691 62.1229H35.7614V64.4153H33.4691V62.1229Z" fill="#90A1AE"/>
<path d="M53.2446 54.8767L54.8655 53.2557L56.4864 54.8767L54.8655 56.4976L53.2446 54.8767Z" fill="#90A1AE"/>
<path d="M62.1231 33.4682H64.4154V35.7606H62.1231V33.4682Z" fill="#90A1AE"/>
<path d="M67.8538 26.5911H59.7276C59.2841 25.1926 58.7224 23.8345 58.0485 22.5313L63.7919 16.7866C64.0067 16.5717 64.1274 16.2802 64.1274 15.9763C64.1274 15.6723 64.0067 15.3809 63.7919 15.1659L58.9287 10.3038C55.7471 7.06097 51.9545 4.48078 47.7699 2.71229C43.5853 0.943807 39.0918 0.022089 34.549 0.000392185C30.0061 -0.0213046 25.504 0.85745 21.3027 2.58588C17.1015 4.31432 13.2843 6.85817 10.0719 10.0704C6.85949 13.2827 4.31543 17.0998 2.58675 21.301C0.858057 25.5023 -0.0209944 30.0044 0.000380648 34.5474C0.0217557 39.0903 0.943134 43.584 2.71128 47.7688C4.47942 51.9536 7.05928 55.7465 10.3018 58.9285L15.1638 63.7917C15.3787 64.0066 15.6702 64.1273 15.9741 64.1273C16.2781 64.1273 16.5695 64.0066 16.7845 63.7917L22.529 58.0482C23.8333 58.7219 25.1926 59.2832 26.5921 59.7262V67.8538C26.5921 68.1578 26.7129 68.4493 26.9278 68.6643C27.1428 68.8792 27.4343 69 27.7383 69H41.4922C41.7962 69 42.0877 68.8792 42.3027 68.6643C42.5176 68.4493 42.6384 68.1578 42.6384 67.8538V59.7273C44.0367 59.2842 45.3949 58.7228 46.6981 58.0493L52.4426 63.7929C52.6575 64.0078 52.949 64.1285 53.2529 64.1285C53.5569 64.1285 53.8483 64.0078 54.0633 63.7929L63.7884 54.0675C64.0033 53.8525 64.124 53.5611 64.124 53.2571C64.124 52.9532 64.0033 52.6617 63.7884 52.4468L58.045 46.7021C58.7199 45.3975 59.2824 44.0378 59.7264 42.6377H67.8538C68.1578 42.6377 68.4494 42.517 68.6643 42.302C68.8792 42.087 69 41.7955 69 41.4915V27.7373C69 27.4333 68.8792 27.1418 68.6643 26.9268C68.4494 26.7119 68.1578 26.5911 67.8538 26.5911ZM11.9213 11.9199C17.7984 6.04084 25.728 2.6727 34.0395 2.52517C42.3509 2.37764 50.3951 5.46224 56.4771 11.129L54.8587 12.7475C49.2026 7.5275 41.7462 4.69844 34.051 4.85273C26.3559 5.00703 19.0189 8.13271 13.5766 13.5752C8.13421 19.0177 5.00861 26.3549 4.85431 34.0502C4.70002 41.7455 7.52901 49.2021 12.7488 54.8583L11.1305 56.4768C5.46381 50.3946 2.37928 42.3502 2.52681 34.0386C2.67433 25.727 6.04239 17.7971 11.9213 11.9199ZM44.3404 24.889C46.8851 27.4755 48.3046 30.9628 48.2898 34.5912C48.2751 38.2196 46.8272 41.6952 44.2615 44.2609C41.6959 46.8266 38.2204 48.2745 34.5921 48.2893C30.9637 48.3041 27.4765 46.8845 24.8901 44.3398C24.6752 44.1249 24.3837 44.0042 24.0798 44.0042C23.7758 44.0042 23.4844 44.1249 23.2694 44.3398L14.3707 53.2388C9.56363 48.0158 6.96162 41.1368 7.10866 34.0399C7.25569 26.943 10.1404 20.1776 15.1596 15.1583C20.1788 10.1389 26.944 7.25416 34.0408 7.10713C41.1375 6.96009 48.0164 9.56216 53.2392 14.3693L44.3404 23.2672C44.2338 23.3736 44.1493 23.5 44.0916 23.6392C44.0339 23.7783 44.0043 23.9275 44.0043 24.0781C44.0043 24.2287 44.0339 24.3779 44.0916 24.517C44.1493 24.6562 44.2338 24.7826 44.3404 24.889ZM66.7077 40.3453H58.8726C58.622 40.3452 58.3783 40.4272 58.1787 40.5787C57.9792 40.7302 57.8348 40.9429 57.7677 41.1843C57.2642 42.9823 56.5481 44.7138 55.6347 46.3422C55.5115 46.5607 55.4634 46.8135 55.4978 47.062C55.5322 47.3104 55.6471 47.5407 55.8249 47.7176L61.3597 53.2537L53.2564 61.3572L47.7204 55.8223C47.5436 55.6445 47.3133 55.5295 47.0648 55.4952C46.8164 55.4608 46.5635 55.5089 46.345 55.632C44.7167 56.5455 42.9852 57.2616 41.1873 57.7651C40.9459 57.8322 40.7332 57.9766 40.5817 58.1762C40.4302 58.3757 40.3482 58.6194 40.3483 58.87V66.7076H28.8845V58.8723C28.8846 58.6217 28.8026 58.378 28.6511 58.1785C28.4996 57.9789 28.2869 57.8345 28.0455 57.7674C26.2476 57.2639 24.5161 56.5478 22.8878 55.6343C22.6693 55.5112 22.4164 55.4631 22.168 55.4975C21.9195 55.5318 21.6892 55.6468 21.5124 55.8246L15.9764 61.3595L12.7351 58.1181L24.1107 46.7434C27.1776 49.3985 31.1362 50.7936 35.1901 50.6478C39.244 50.502 43.0922 48.8262 45.9604 45.9576C48.8287 43.0891 50.504 39.2406 50.6494 35.1866C50.7947 31.1326 49.3993 27.174 46.7439 24.1073L58.1184 12.7314L61.3597 15.9728L55.8249 21.5089C55.6471 21.6858 55.5322 21.9161 55.4978 22.1645C55.4634 22.413 55.5115 22.6658 55.6347 22.8843C56.5483 24.5126 57.2644 26.2442 57.7677 28.0422C57.8348 28.2836 57.9792 28.4963 58.1787 28.6478C58.3783 28.7994 58.622 28.8813 58.8726 28.8812H66.7077V40.3453Z" fill="#90A1AE"/>
<path d="M35.7614 30.1924V17.4216C35.7614 17.1176 35.6407 16.8261 35.4257 16.6111C35.2108 16.3962 34.9192 16.2754 34.6153 16.2754C34.3113 16.2754 34.0197 16.3962 33.8048 16.6111C33.5899 16.8261 33.4691 17.1176 33.4691 17.4216V30.1924C32.6814 30.3984 31.9628 30.8104 31.3871 31.3861C30.8114 31.9619 30.3993 32.6805 30.1934 33.4682H22.0075C21.7035 33.4682 21.412 33.589 21.1971 33.8039C20.9821 34.0189 20.8614 34.3104 20.8614 34.6144C20.8614 34.9184 20.9821 35.2099 21.1971 35.4249C21.412 35.6398 21.7035 35.7606 22.0075 35.7606H30.1934C30.3938 36.5427 30.7976 37.2579 31.3638 37.8335C31.9301 38.4091 32.6385 38.8247 33.4172 39.0379C34.196 39.2511 35.0173 39.2545 35.7977 39.0477C36.5782 38.8408 37.29 38.4311 37.861 37.8602C38.4319 37.2893 38.8416 36.5774 39.0484 35.7969C39.2552 35.0164 39.2519 34.1951 39.0386 33.4164C38.8254 32.6376 38.4099 31.9291 37.8343 31.3629C37.2587 30.7967 36.5435 30.3928 35.7614 30.1924ZM34.6153 36.9068C34.1619 36.9068 33.7187 36.7723 33.3417 36.5204C32.9647 36.2686 32.6709 35.9105 32.4974 35.4917C32.3239 35.0728 32.2785 34.6119 32.367 34.1672C32.4554 33.7225 32.6738 33.314 32.9943 32.9935C33.3149 32.6729 33.7234 32.4545 34.168 32.3661C34.6127 32.2776 35.0736 32.323 35.4925 32.4965C35.9114 32.67 36.2694 32.9638 36.5212 33.3408C36.7731 33.7178 36.9076 34.161 36.9076 34.6144C36.9076 35.2224 36.6661 35.8055 36.2362 36.2354C35.8063 36.6653 35.2232 36.9068 34.6153 36.9068Z" fill="#90A1AE"/>
<path d="M34.6153 12.8369C34.3113 12.8369 34.0197 12.7161 33.8048 12.5012C33.5899 12.2862 33.4691 11.9947 33.4691 11.6907V9.3983C33.4691 9.09431 33.5899 8.80278 33.8048 8.58783C34.0197 8.37287 34.3113 8.25212 34.6153 8.25212C34.9192 8.25212 35.2108 8.37287 35.4257 8.58783C35.6407 8.80278 35.7614 9.09431 35.7614 9.3983V11.6907C35.7614 11.9947 35.6407 12.2862 35.4257 12.5012C35.2108 12.7161 34.9192 12.8369 34.6153 12.8369Z" fill="#90A1AE"/>
<path d="M46.0768 15.9086C45.8757 15.9084 45.6782 15.8553 45.5042 15.7546C45.3301 15.654 45.1856 15.5092 45.0851 15.335C44.9847 15.1608 44.9318 14.9633 44.9319 14.7622C44.9319 14.5611 44.9849 14.3635 45.0854 14.1894L46.2316 12.203C46.3846 11.9419 46.6348 11.7519 46.9274 11.6746C47.22 11.5972 47.5313 11.6387 47.7934 11.7901C48.0555 11.9414 48.2472 12.1903 48.3265 12.4824C48.4058 12.7745 48.3663 13.0861 48.2167 13.3492L47.0706 15.3355C46.9699 15.51 46.825 15.6548 46.6506 15.7554C46.4761 15.856 46.2782 15.9088 46.0768 15.9086Z" fill="#90A1AE"/>
<path d="M23.1537 15.9086C22.9523 15.9088 22.7544 15.856 22.58 15.7554C22.4055 15.6548 22.2606 15.51 22.16 15.3355L21.0138 13.3492C20.8642 13.0861 20.8247 12.7745 20.9041 12.4824C20.9834 12.1903 21.175 11.9414 21.4371 11.7901C21.6992 11.6387 22.0105 11.5972 22.3031 11.6746C22.5957 11.7519 22.8459 11.9419 22.9989 12.203L24.1451 14.1894C24.2456 14.3635 24.2986 14.5611 24.2987 14.7622C24.2987 14.9633 24.2458 15.1608 24.1454 15.335C24.0449 15.5092 23.9004 15.654 23.7263 15.7546C23.5523 15.8553 23.3548 15.9084 23.1537 15.9086Z" fill="#90A1AE"/>
<path d="M14.7626 24.2987C14.5614 24.2992 14.3636 24.2461 14.1896 24.1451L12.2033 22.9989C11.9422 22.8459 11.7522 22.5957 11.6749 22.3031C11.5975 22.0105 11.639 21.6992 11.7903 21.437C11.9417 21.1749 12.1905 20.9833 12.4826 20.904C12.7747 20.8247 13.0863 20.8642 13.3494 21.0138L15.3357 22.1599C15.5542 22.2861 15.725 22.4808 15.8215 22.7139C15.9181 22.947 15.935 23.2055 15.8697 23.4492C15.8044 23.6929 15.6605 23.9083 15.4604 24.0619C15.2602 24.2155 15.0149 24.2987 14.7626 24.2987Z" fill="#90A1AE"/>
<path d="M11.6921 35.7606H9.39977C9.09579 35.7606 8.80426 35.6398 8.58932 35.4249C8.37437 35.2099 8.25362 34.9184 8.25362 34.6144C8.25362 34.3104 8.37437 34.0189 8.58932 33.8039C8.80426 33.589 9.09579 33.4682 9.39977 33.4682H11.6921C11.9961 33.4682 12.2876 33.589 12.5025 33.8039C12.7175 34.0189 12.8382 34.3104 12.8382 34.6144C12.8382 34.9184 12.7175 35.2099 12.5025 35.4249C12.2876 35.6398 11.9961 35.7606 11.6921 35.7606Z" fill="#90A1AE"/>
<path d="M12.7786 48.3686C12.5263 48.3686 12.2811 48.2854 12.0809 48.1318C11.8808 47.9782 11.7369 47.7628 11.6716 47.5191C11.6063 47.2754 11.6232 47.017 11.7198 46.7839C11.8163 46.5508 11.9871 46.356 12.2056 46.2299L14.1919 45.0837C14.3223 45.0072 14.4665 44.9573 14.6163 44.9368C14.766 44.9164 14.9183 44.9257 15.0645 44.9644C15.2106 45.003 15.3477 45.0702 15.4677 45.162C15.5878 45.2538 15.6885 45.3685 15.7641 45.4994C15.8397 45.6303 15.8886 45.7748 15.9081 45.9247C15.9276 46.0746 15.9172 46.2269 15.8776 46.3728C15.838 46.5187 15.77 46.6553 15.6774 46.7747C15.5847 46.8942 15.4694 46.9942 15.338 47.0689L13.3517 48.2151C13.1777 48.3161 12.9799 48.3691 12.7786 48.3686Z" fill="#90A1AE"/>
<path d="M34.6153 46.0763C33.1095 46.0805 31.6179 45.7853 30.2272 45.208C28.8365 44.6307 27.5744 43.7827 26.5142 42.7134C26.4049 42.6075 26.3178 42.4809 26.2579 42.341C26.198 42.201 26.1666 42.0506 26.1655 41.8984C26.1644 41.7462 26.1937 41.5953 26.2515 41.4546C26.3093 41.3138 26.3946 41.1859 26.5024 41.0785C26.6101 40.971 26.7382 40.8861 26.8791 40.8287C27.0201 40.7712 27.171 40.7424 27.3232 40.744C27.4754 40.7455 27.6257 40.7773 27.7655 40.8376C27.9052 40.8978 28.0316 40.9853 28.1372 41.0949C28.9847 41.9607 29.9956 42.6498 31.1112 43.1224C32.2268 43.5949 33.425 43.8416 34.6366 43.848C35.8481 43.8544 37.0489 43.6205 38.1694 43.1598C39.29 42.6992 40.3081 42.0208 41.1648 41.1641C42.0215 40.3074 42.6998 39.2893 43.1605 38.1687C43.6212 37.0481 43.855 35.8473 43.8486 34.6357C43.8422 33.4241 43.5956 32.2259 43.123 31.1102C42.6505 29.9946 41.9614 28.9837 41.0956 28.1362C40.986 28.0306 40.8985 27.9042 40.8383 27.7645C40.778 27.6247 40.7462 27.4744 40.7447 27.3222C40.7431 27.17 40.7719 27.019 40.8293 26.8781C40.8868 26.7372 40.9717 26.6091 41.0792 26.5013C41.1866 26.3935 41.3145 26.3083 41.4552 26.2504C41.596 26.1926 41.7469 26.1634 41.8991 26.1645C42.0513 26.1656 42.2017 26.197 42.3416 26.2568C42.4815 26.3167 42.6081 26.4038 42.714 26.5132C44.3154 28.116 45.4058 30.1574 45.8476 32.3797C46.2893 34.6019 46.0625 36.9052 45.1959 38.9987C44.3293 41.0921 42.8616 42.8817 40.9784 44.1414C39.0952 45.4011 36.8809 46.0744 34.6153 46.0763Z" fill="#90A1AE"/>
</svg>

<svg width="69" height="69" fill="none" xmlns="http://www.w3.org/2000/svg"><path d="M33.47 62.123h2.291v2.292H33.47v-2.292ZM53.245 54.877l1.62-1.621 1.621 1.62-1.62 1.622-1.621-1.621ZM62.123 33.468h2.292v2.293h-2.292v-2.293Z" fill="#90A1AE"/><path d="M67.854 26.591h-8.126a25.85 25.85 0 0 0-1.68-4.06l5.744-5.744a1.146 1.146 0 0 0 0-1.621l-4.863-4.862a34.384 34.384 0 1 0-48.627 48.624l4.862 4.864a1.146 1.146 0 0 0 1.62 0l5.745-5.744a25.857 25.857 0 0 0 4.063 1.678v8.128A1.147 1.147 0 0 0 27.738 69h13.754a1.147 1.147 0 0 0 1.146-1.146v-8.127a25.853 25.853 0 0 0 4.06-1.678l5.745 5.744a1.146 1.146 0 0 0 1.62 0l9.725-9.725a1.146 1.146 0 0 0 0-1.621l-5.743-5.745a25.856 25.856 0 0 0 1.681-4.064h8.128A1.146 1.146 0 0 0 69 41.492V27.736a1.147 1.147 0 0 0-1.146-1.146ZM11.92 11.92a32.08 32.08 0 0 1 44.556-.791l-1.618 1.619a29.8 29.8 0 0 0-42.11 42.11l-1.619 1.619a32.081 32.081 0 0 1 .791-44.557Zm32.42 12.969a13.754 13.754 0 0 1-19.45 19.45 1.146 1.146 0 0 0-1.622 0l-8.898 8.9a27.509 27.509 0 0 1 38.868-38.87l-8.899 8.898a1.145 1.145 0 0 0 0 1.622Zm22.367 15.456h-7.835a1.147 1.147 0 0 0-1.105.84 23.493 23.493 0 0 1-2.133 5.157 1.146 1.146 0 0 0 .19 1.376l5.535 5.536-8.104 8.103-5.536-5.535a1.146 1.146 0 0 0-1.375-.19 23.487 23.487 0 0 1-5.158 2.133 1.145 1.145 0 0 0-.839 1.105v7.838H28.885v-7.836a1.146 1.146 0 0 0-.84-1.105 23.487 23.487 0 0 1-5.157-2.133 1.146 1.146 0 0 0-1.376.19l-5.536 5.535-3.24-3.24L24.11 46.742a16.046 16.046 0 0 0 22.633-22.636l11.374-11.376 3.242 3.242-5.535 5.536a1.147 1.147 0 0 0-.19 1.375 23.471 23.471 0 0 1 2.133 5.158 1.146 1.146 0 0 0 1.105.84h7.835v11.463Z" fill="#90A1AE"/><path d="M35.761 30.192v-12.77a1.146 1.146 0 1 0-2.292 0v12.77a4.585 4.585 0 0 0-3.276 3.276h-8.186a1.146 1.146 0 0 0 0 2.293h8.186a4.576 4.576 0 1 0 5.568-5.569Zm-1.146 6.715a2.292 2.292 0 1 1 0-4.585 2.292 2.292 0 0 1 0 4.585ZM34.615 12.837a1.146 1.146 0 0 1-1.146-1.146V9.398a1.146 1.146 0 0 1 2.292 0v2.293a1.146 1.146 0 0 1-1.146 1.146ZM46.077 15.909a1.145 1.145 0 0 1-.992-1.72l1.147-1.986a1.146 1.146 0 0 1 1.985 1.146l-1.146 1.986a1.146 1.146 0 0 1-.994.574ZM23.154 15.909a1.146 1.146 0 0 1-.994-.574l-1.146-1.986a1.146 1.146 0 0 1 1.985-1.146l1.146 1.986a1.147 1.147 0 0 1-.991 1.72ZM14.763 24.299c-.202 0-.4-.053-.573-.154L12.203 23a1.146 1.146 0 0 1 1.146-1.985l1.987 1.146a1.146 1.146 0 0 1-.573 2.139ZM11.692 35.76H9.4a1.146 1.146 0 0 1 0-2.292h2.292a1.146 1.146 0 0 1 0 2.293ZM12.779 48.369a1.146 1.146 0 0 1-.573-2.14l1.986-1.145a1.146 1.146 0 1 1 1.146 1.985l-1.986 1.146a1.136 1.136 0 0 1-.573.154Z" fill="#90A1AE"/><path d="M34.615 46.076a11.363 11.363 0 0 1-8.1-3.363 1.147 1.147 0 1 1 1.622-1.618 9.164 9.164 0 1 0 12.959-12.959 1.146 1.146 0 1 1 1.618-1.623 11.462 11.462 0 0 1-8.099 19.563Z" fill="#90A1AE"/></svg>
